dist/img/sprites/icon2.svg

<svg width="65" height="65" viewBox="0 0 65 65" fill="none" xmlns="http://www.w3.org/2000/svg">
<rect x="0.625" y="0.111328" width="64" height="63.9956" rx="12.4414" fill="#F8F1EC"/>
<path d="M53.3099 17.1966L53.3099 17.1962C53.3069 17.1439 53.2847 17.0945 53.2476 17.0575C53.2106 17.0204 53.1612 16.9983 53.1089 16.9952C43.8223 16.4571 36.7919 19.3082 33.8676 24.1348L53.3099 17.1966ZM53.3099 17.1966C53.8553 26.4823 50.9972 33.5128 46.1705 36.4337L46.1684 36.435C44.6087 37.3831 42.8177 37.8822 40.9925 37.8773C39.0627 37.8524 37.1659 37.3736 35.4554 36.4796L34.5433 36.0029L33.8985 36.8049C32.2568 38.8466 31.365 41.3896 31.372 44.0094V49.4152C31.372 49.4719 31.3495 49.5263 31.3094 49.5664L32.1955 50.4525L31.3094 49.5664C31.2693 49.6065 31.2149 49.629 31.1582 49.629C31.1015 49.629 31.0471 49.6065 31.007 49.5664C30.9669 49.5263 30.9444 49.4719 30.9444 49.4152V44.1582V43.6392L30.5774 43.2721L25.9933 38.6881L25.3572 38.0519L24.551 38.4513C23.3776 39.0326 22.0888 39.3433 20.7795 39.3607C19.4676 39.3592 18.1814 38.9965 17.0619 38.3124L17.0578 38.3098C13.6361 36.2371 11.533 31.2344 11.9293 24.5112L11.9294 24.5106C11.9324 24.4583 11.9546 24.4089 11.9916 24.3718C12.0287 24.3348 12.078 24.3126 12.1303 24.3096L12.1307 24.3096C18.8536 23.915 23.8556 26.016 25.9288 29.4366C27.2463 31.6241 27.3294 34.2933 26.0546 36.9554L25.6722 37.7539L26.2971 38.3811L29.2804 41.3754L30.8049 42.9056L31.3765 40.8225C31.8276 39.1785 32.629 37.6515 33.7257 36.3463L34.262 35.708M53.3099 17.1966L34.262 35.708M34.262 35.708L33.8805 34.9668M34.262 35.708L33.8805 34.9668M33.8805 34.9668C31.9194 31.1559 31.9612 27.284 33.8674 24.1352L33.8805 34.9668ZM17.2721 37.9451L17.2722 37.9451C19.0899 39.0457 21.1858 39.1985 23.2547 38.5139L25.1843 37.8754L23.7471 36.4382L19.2877 31.9787C19.253 31.9391 19.2342 31.8881 19.2348 31.8353C19.2356 31.7795 19.258 31.7262 19.2974 31.6868C19.3369 31.6474 19.3901 31.6249 19.4459 31.6242C19.4987 31.6235 19.5497 31.6424 19.5893 31.677L24.0488 36.1365L25.486 37.5737L26.1245 35.6441C26.809 33.5757 26.6566 31.4778 25.5557 29.6615C23.5092 26.2822 18.9029 24.6463 13.5448 24.6917L12.3115 24.7022L12.3023 25.9355C12.2626 31.2912 13.8923 35.8982 17.2721 37.9451ZM45.948 36.0713L45.9483 36.0711C50.7437 33.1672 53.1239 26.5139 52.944 18.5855L52.9169 17.3891L51.7205 17.3611C43.7891 17.1756 37.1444 19.5597 34.2404 24.3499C32.508 27.1968 32.4173 30.517 33.7904 33.767L34.5142 35.4802L35.8302 34.1659L45.6608 24.3481C45.7004 24.3134 45.7515 24.2945 45.8044 24.2952C45.8601 24.2959 45.9134 24.3184 45.9528 24.3578C45.9923 24.3972 46.0147 24.4505 46.0154 24.5063C46.0161 24.5591 45.9972 24.6101 45.9626 24.6497L36.1342 34.48L34.8162 35.7982L36.5345 36.521C39.7846 37.8881 43.101 37.7943 45.948 36.0713Z" fill="#FCB040" stroke="#FCB040" stroke-width="2.50619"/>
</svg>

<svg width="65" height="65" viewBox="0 0 65 65" fill="none" xmlns="http://www.w3.org/2000/svg"><rect x=".625" y=".111" width="64" height="63.996" rx="12.441" fill="#F8F1EC"/><path d="M53.31 17.197h0a.213.213 0 00-.201-.202c-9.287-.538-16.317 2.313-19.241 7.14l19.442-6.938zm0 0c.545 9.285-2.313 16.316-7.14 19.237l-.002.001a9.913 9.913 0 01-5.175 1.442 12.296 12.296 0 01-5.538-1.397l-.912-.477-.645.802a11.448 11.448 0 00-2.526 7.204v5.406a.214.214 0 01-.063.151l.887.886-.887-.886a.214.214 0 01-.365-.15v-5.777l-.367-.367-4.584-4.584-.636-.636-.806.4a8.758 8.758 0 01-3.771.909 7.145 7.145 0 01-3.718-1.049l-.004-.002c-3.422-2.073-5.525-7.076-5.129-13.799h0a.214.214 0 01.201-.201h0c6.724-.395 11.726 1.706 13.799 5.127 1.317 2.187 1.4 4.856.126 7.518l-.383.799.625.627 2.983 2.994 1.525 1.53.572-2.083a11.82 11.82 0 012.349-4.476l.536-.638M53.31 17.197L34.262 35.708m0 0l-.382-.741m.382.741l-.382-.741m0 0c-1.96-3.811-1.919-7.683-.013-10.832l.014 10.832zm-16.608 2.978h0c1.818 1.1 3.914 1.254 5.983.569l1.93-.639-1.438-1.437-4.46-4.46a.214.214 0 01.302-.301l4.46 4.46 1.437 1.437.639-1.93c.684-2.068.532-4.166-.57-5.982-2.046-3.38-6.652-5.016-12.01-4.97l-1.233.01-.01 1.233c-.04 5.356 1.59 9.963 4.97 12.01zm28.676-1.874h0c4.796-2.904 7.176-9.557 6.996-17.485l-.027-1.197-1.197-.028c-7.93-.185-14.576 2.199-17.48 6.989-1.732 2.847-1.823 6.167-.45 9.417l.724 1.713 1.316-1.314 9.83-9.818a.214.214 0 01.303.302l-9.829 9.83-1.318 1.318 1.718.723c3.25 1.367 6.567 1.273 9.414-.45z" fill="#FCB040" stroke="#FCB040" stroke-width="2.506"/></svg>
